X: 13018
T: Final Ten Minutes, The
R: reel
M: 4/4
K: Gmajor
|AB|:c4 B4|BAGE GAAB|c4 d4|e6 eg|
a3b age2|edef g3g|gedB BAGE|G/A6 AB:|
A2AG EEEG|AAAG E2EG|A3 Bc2d2|e6 eg|
a3b age2|edef g3g|gedB BAGE|G/A6 AB:|
c2e2 B2e2|A2AG AGE/F/G|A3B c2d2|e6 eg|
a3b age2|e_e=ef g2gg|gedB BAGE|G/A6 AB:|

